X: 37752
T: Some Boy John
R: reel
M: 4/4
K: Gminor
G,-|:G,D GB A2 GF|D2 CD FD CD|G,D GB A2 (3GAB|1 c2 Ac BA GF:|2 c2 Ac BA GA]|
|:B2 AB GB (3BBB|AB GF DF GA|B2 AB GF DB,|1 CB,2C DF GA:|2 CB,2C DG z||

